picto/emergency-brake-framed.svg

<svg class="color-immutable" width="30" height="30" viewBox="0 0 30 30" fill="none" xmlns="http://www.w3.org/2000/svg"><path d="M30 0H0V30H30V0Z" fill="#237F52"/><path d="M25.5 3C26.325 3 27 3.675 27 4.5V25.5C27 26.325 26.325 27 25.5 27H4.5C3.675 27 3 26.325 3 25.5V4.5C3 3.675 3.675 3 4.5 3H25.5ZM25.5 2.625H4.5C3.46613 2.625 2.625 3.46613 2.625 4.5V25.5C2.625 26.5339 3.46613 27.375 4.5 27.375H25.5C26.5339 27.375 27.375 26.5339 27.375 25.5V4.5C27.375 3.46613 26.5339 2.625 25.5 2.625Z" fill="white"/><path d="M8.87664 19.3074L10.8103 17.3736V18.5821L8.39342 20.9992L5.97632 18.5821V17.3736L7.90982 19.3074V14.7151H8.87664V19.3074Z" fill="white"/><path d="M22.8303 6.00008V8.8857H22.8321C22.8321 9.29355 22.5018 9.62408 22.0937 9.62408H22.0051H20.452H14.637H12.7225C12.3148 9.62408 11.9849 9.29355 11.9849 8.8857H11.9873L11.9894 6.0024L10.8264 6.00008V9.62408V14.817C10.8279 15.8187 11.6014 16.6352 12.5827 16.7108V15.5406C12.2452 15.4724 11.9901 15.1748 11.9901 14.817V11.5242C11.9901 11.1181 12.321 10.7879 12.7277 10.7875H22.0998C22.5048 10.7879 22.8362 11.1181 22.8362 11.5242V14.817C22.8362 15.1799 22.5731 15.4796 22.2297 15.5422V16.7116C23.2175 16.6432 23.9984 15.8237 24 14.817V9.62408V6.00008H22.8303Z" fill="white"/><path d="M21.1695 14.2218C20.7377 14.2218 20.3871 14.5722 20.3871 15.004V17.0483H20.0737V14.0585C20.0737 13.6265 19.7237 13.2764 19.2913 13.2764C18.8593 13.2764 18.509 13.6265 18.509 14.0585V16.4371H18.1955V13.4342C18.1955 13.0019 17.8454 12.652 17.4132 12.652C16.9812 12.652 16.6307 13.002 16.6307 13.4342V15.7934H16.3174V13.7696C16.3174 13.3373 15.9674 12.9871 15.5351 12.9871C15.103 12.9871 14.7527 13.3373 14.7527 13.7696V17.6982H14.4392L14.4382 17.6988V15.689C14.4382 15.1924 14.1258 14.7503 13.6571 14.5848C13.5951 14.5631 13.5293 14.5517 13.4617 14.5517C13.1393 14.5514 12.8769 14.8142 12.8769 15.137V18.9122L12.8745 18.9139C12.8745 19.3047 12.9554 19.7081 13.0856 20.0223C13.2154 20.336 14.4628 23.348 14.4628 23.348L20.9528 23.3474L21.7538 21.4049C21.8861 21.0588 21.9519 20.6918 21.9519 20.2991C21.9519 20.2454 21.9519 15.0039 21.9519 15.0039C21.952 14.5723 21.6018 14.2218 21.1695 14.2218Z" fill="white"/></svg>

<svg class="color-immutable" width="30" height="30" viewBox="0 0 30 30" fill="none" xmlns="http://www.w3.org/2000/svg"><g clip-path="url(#a)"><path d="M30 0H0v30h30V0Z" fill="#237F52"/><path d="M25.5 3c.825 0 1.5.675 1.5 1.5v21c0 .825-.675 1.5-1.5 1.5h-21c-.825 0-1.5-.675-1.5-1.5v-21C3 3.675 3.675 3 4.5 3h21Zm0-.375h-21A1.877 1.877 0 0 0 2.625 4.5v21c0 1.034.841 1.875 1.875 1.875h21a1.877 1.877 0 0 0 1.875-1.875v-21A1.877 1.877 0 0 0 25.5 2.625Z" fill="#fff"/><path d="m8.877 19.307 1.933-1.933v1.208L8.393 21l-2.417-2.417v-1.208l1.934 1.933v-4.592h.967v4.592ZM22.83 6v2.886h.002c0 .408-.33.738-.738.738h-9.372a.738.738 0 0 1-.737-.738h.002l.002-2.884L10.826 6v8.817a1.902 1.902 0 0 0 1.757 1.894v-1.17a.74.74 0 0 1-.593-.724v-3.293c0-.406.331-.736.738-.736H22.1c.405 0 .736.33.736.736v3.293a.739.739 0 0 1-.606.725v1.17A1.902 1.902 0 0 0 24 14.817V6h-1.17Z" fill="#fff"/><path d="M21.17 14.222a.783.783 0 0 0-.783.782v2.044h-.313v-2.99a.782.782 0 1 0-1.565 0v2.38h-.314v-3.004a.782.782 0 1 0-1.564 0v2.36h-.314V13.77a.782.782 0 1 0-1.564 0v3.928h-.314V15.69a1.17 1.17 0 0 0-.782-1.104.586.586 0 0 0-.78.552v3.775l-.003.002c0 .39.081.794.212 1.108l1.377 3.326h6.49l.8-1.943c.133-.346.199-.713.199-1.106v-5.295a.782.782 0 0 0-.783-.782Z" fill="#fff"/></g><defs><clipPath id="a"><path fill="#fff" d="M0 0h30v30H0z"/></clipPath></defs></svg>
